!!!COM: Balsamino, Simone
!!!CDT:
!!!PTL: Novellette a sei voci
!!!PPP: Venice
!!!PPR: Amadino
!!!PDT: 1594
!!!PUB-format:
!!!RISM: B 785
!!!OTL: Orsù scuoprimi il tutto. Odi. Dì tosto
!!!AGN: Madrigal
!!!SCT: Tam2031067a
!!!SCA: Tam2031067a
!!!original-voices: 6
!!!extant-voices: 6
!!!complete: Y
!!!final: (F)F
**kern	**text	**kern	**text	**kern	**text	**kern	**text	**kern	**text	**kern	**text
*part6	*part6	*part5	*part5	*part4	*part4	*part3	*part3	*part2	*part2	*part1	*part1
*staff6	*staff6	*staff5	*staff5	*staff4	*staff4	*staff3	*staff3	*staff2	*staff2	*staff1	*staff1
*I"Basso	*	*I"Quinto	*	*I"Tenore	*	*I"Alto	*	*I"Sesto	*	*I"Canto	*
*I'B	*	*I'V	*	*I'T	*	*I'A	*	*I'VI	*	*I'C	*
*oclefF4	*	*oclefC4	*	*oclefC4	*	*oclefC3	*	*oclefC1	*	*oclefC1	*
*clefF4	*	*clefGv2	*	*clefGv2	*	*clefG2	*	*clefG2	*	*clefG2	*
*k[b-]	*	*k[b-]	*	*k[b-]	*	*k[b-]	*	*k[b-]	*	*k[b-]	*
*omet(C)	*	*omet(C)	*	*omet(C)	*	*omet(C)	*	*omet(C)	*	*omet(C)	*
*M4/2	*	*M4/2	*	*M4/2	*	*M4/2	*	*M4/2	*	*M4/2	*
=1	=1	=1	=1	=1	=1	=1	=1	=1	=1	=1	=1
!!LO:TX:a:t=[Quinta parte]
0r	.	0r	.	1r	.	0r	.	0r	.	2cc	Or-
.	.	.	.	.	.	.	.	.	.	4a	-sù
.	.	.	.	.	.	.	.	.	.	4.cc	scuo-
.	.	.	.	2c	Or-	.	.	.	.	.	.
.	.	.	.	.	.	.	.	.	.	8b-y	-pri-
.	.	.	.	.	.	.	.	.	.	4a	-mi il
.	.	.	.	4B-y	-sù	.	.	.	.	2g	tut-
.	.	.	.	[4c	scuo-	.	.	.	.	.	.
=2	=2	=2	=2	=2	=2	=2	=2	=2	=2	=2	=2
2F	Or-	0r	.	8c]	.	0r	.	0r	.	2.f	-to,
.	.	.	.	8B-y	-pri-	.	.	.	.	.	.
.	.	.	.	4A	-mi il	.	.	.	.	.	.
4D	-sù	.	.	2A	tut-	.	.	.	.	.	.
4.F	scuo-	.	.	.	.	.	.	.	.	4.a	scuo-
.	.	.	.	4A	-to,	.	.	.	.	.	.
8E	-pri-	.	.	.	.	.	.	.	.	8g	-pri-
4D	-mi il	.	.	4.B-y	scuo-	.	.	.	.	4f	-mi il
2C	tut-	.	.	.	.	.	.	.	.	2e	tut-
.	.	.	.	8A	-pri-	.	.	.	.	.	.
.	.	.	.	4G	-mi il	.	.	.	.	.	.
=3	=3	=3	=3	=3	=3	=3	=3	=3	=3	=3	=3
4C	-to,	0r	.	4G	tut-	0r	.	0r	.	4e	-to,
4.A	scuo-	.	.	4F	-to,	.	.	.	.	4.cc	scuo-
.	.	.	.	4.c	scuo-	.	.	.	.	.	.
8G	-pri-	.	.	.	.	.	.	.	.	8b-y	-pri-
4F	-mi il	.	.	.	.	.	.	.	.	4a	-mi il
.	.	.	.	8c	-pri-	.	.	.	.	.	.
2E	tut-	.	.	4c	-mi il	.	.	.	.	2g	tut-
.	.	.	.	2c	tut-	.	.	.	.	.	.
2F	-to.	.	.	.	.	.	.	.	.	2f	-to.
.	.	.	.	4c	-to.	.	.	.	.	.	.
=4	=4	=4	=4	=4	=4	=4	=4	=4	=4	=4	=4
1r	.	2c	O-	1r	.	2e	O-	2g	O-	1r	.
.	.	2c	-di.	.	.	2e	-di.	2g	-di.	.	.
2r	.	1r	.	2r	.	1r	.	1r	.	4.cc	Dì,
.	.	.	.	.	.	.	.	.	.	8cc	Dì
[2F	Dì,	.	.	[2c	Dì,	.	.	.	.	8a	to-
.	.	.	.	.	.	.	.	.	.	8a	-sto,
.	.	.	.	.	.	.	.	.	.	4cc	Dì
=5	=5	=5	=5	=5	=5	=5	=5	=5	=5	=5	=5
4F]	.	1r	.	4c]	.	1r	.	1r	.	2a	to-
4F	Dì	.	.	4c	Dì	.	.	.	.	.	.
8D	to-	.	.	8F	to-	.	.	.	.	2a	-sto.
8D	-sto,	.	.	8F	-sto,	.	.	.	.	.	.
4F	Dì	.	.	4A	Dì	.	.	.	.	.	.
4.D	to-	2r	.	4.F	to-	2r	.	2r	.	1r	.
8D	-sto.	.	.	8F	-sto.	.	.	.	.	.	.
2r	.	2c	Sil-	2r	.	2e	Sil-	2g	Sil-	.	.
=6	=6	=6	=6	=6	=6	=6	=6	=6	=6	=6	=6
0r	.	4c	-via	0r	.	4e	-via	4g	-via	0r	.
.	.	4c	t'at-	.	.	4e	t'at-	4g	t'at-	.	.
.	.	4c	-ten-	.	.	4e	-ten-	4g	-ten-	.	.
.	.	4B-y	-de a un	.	.	4d	-de a un	4g	-de a un	.	.
.	.	4c	fon-	.	.	4e	fon-	2.g	fon-	.	.
.	.	4G	-te i-	.	.	4d	-te i-	.	.	.	.
.	.	4c	-gnu-	.	.	2e	-gnu-	.	.	.	.
.	.	4c	-da e	.	.	.	.	4g	-te i-	.	.
=7	=7	=7	=7	=7	=7	=7	=7	=7	=7	=7	=7
0r	.	1c	so-	0r	.	2e	-da e	4g	-gnu-	0r	.
.	.	.	.	.	.	.	.	4a	-da e	.	.
.	.	.	.	.	.	4g	so-	1cc	so-	.	.
.	.	.	.	.	.	8fL	.	.	.	.	.
.	.	.	.	.	.	8eJ	.	.	.	.	.
.	.	1A	-la.	.	.	4f	.	.	.	.	.
.	.	.	.	.	.	4e	.	.	.	.	.
.	.	.	.	.	.	4e	.	2a	-la.	.	.
.	.	.	.	.	.	8dL	.	.	.	.	.
.	.	.	.	.	.	8cJ	.	.	.	.	.
=8	=8	=8	=8	=8	=8	=8	=8	=8	=8	=8	=8
2r	.	0r	.	4.G	Ar-	2d	.	4.b-y	Ar-	1g	so-
.	.	.	.	8A	-di-	.	.	8cc	-di-	.	.
4.GG	Ar-	.	.	4B-y	-rai	2d	-la.	1dd	-rai	.	.
.	.	.	.	8B-y	tu	.	.	.	.	.	.
8AA	-di-	.	.	8c	d'an-	.	.	.	.	.	.
4BB-y	-rai	.	.	2d	-dar-	4.d	Ar-	.	.	2d	-la.
8BB-y	tu	.	.	.	.	.	.	.	.	.	.
8C	d'an-	.	.	.	.	8e	-di-	.	.	.	.
[2D	-dar-	.	.	2A	-vi,	4f	-rai	2dd	tu,	4.d	Ar-
.	.	.	.	.	.	8f	tu	.	.	.	.
.	.	.	.	.	.	8g	d'an-	.	.	8e	-di-
=9	=9	=9	=9	=9	=9	=9	=9	=9	=9	=9	=9
2D]	.	4.D	Ar-	2.A	Ar-	2a	-dar-	1r	.	4f	-rai
.	.	.	.	.	.	.	.	.	.	8f	tu
.	.	8E	-di-	.	.	.	.	.	.	8g	d'an-
2D	-vi,	4F	-rai	.	.	2d	-vi,	.	.	4a	-dar-
.	.	8D	tu	4A	-di-	.	.	.	.	4a	-vi,
.	.	8E	d'an-	.	.	.	.	.	.	.	.
4.BB-y	Ar-	2F	-dar-	2B-y	-rai	2d	d'an-	4.d	Ar-	1r	.
8C	-di-	.	.	.	.	.	.	8e	-di-	.	.
4D	-rai	2F	-vi,	2A	tu,	2d	-dar-	4f	-rai	.	.
8D	tu	.	.	.	.	.	.	8f	tu	.	.
8E	d'an-	.	.	.	.	.	.	8g	d'an-	.	.
=10	=10	=10	=10	=10	=10	=10	=10	=10	=10	=10	=10
0F	-dar-	4.A	Ar-	4.F	Ar-	2c	-vi,	4a	-dar-	2r	.
.	.	.	.	.	.	.	.	4a	-vi,	.	.
.	.	8B-y	-di-	8G	-di-	.	.	.	.	.	.
.	.	4c	-rai	4A	-rai	2r	.	2r	.	4.f	Ar-
.	.	8d	tu	8A	tu	.	.	.	.	.	.
.	.	8e	d'an-	8B-y	d'an-	.	.	.	.	8g	-di-
.	.	2f	-dar-	4c	-dar-	1r	.	2r	.	4a	-rai
.	.	.	.	4c	-vi,	.	.	.	.	8a	tu
.	.	.	.	.	.	.	.	.	.	8b-y	d'an-
.	.	2c	-vi,	4.A	<Ar-	.	.	4.f	Ar-	2cc	-dar-
.	.	.	.	8B-y	-di-	.	.	8g	-di-	.	.
=11	=11	=11	=11	=11	=11	=11	=11	=11	=11	=11	=11
1F	-vi,	4.F	<Ar-	4c	-rai	2r	.	4a	-rai	2cc	-vi,
.	.	.	.	8d	tu	.	.	8a	tu	.	.
.	.	8G	-di-	8e	d'an-	.	.	8b-y	d'an-	.	.
.	.	4A	-rai	2f	-dar-	4c	Ar-	2cc	-dar-	4.f	<Ar-
.	.	8A	tu	.	.	8d	-di-	.	.	.	.
.	.	8A	d'an-	.	.	8e	-rai	.	.	8g	-di-
4.D	<Ar-	2d	-dar-	2F	-vi,>	2f	tu	2dd	-vi,	4a	-rai
.	.	.	.	.	.	.	.	.	.	8a	tu
8E	-di-	.	.	.	.	.	.	.	.	8b-y	d'an-
4F	-rai	[2c	-vi,>	2A	d'an-	2f	d'an-	4.a	<Ar-	2cc	-dar-
8F	tu	.	.	.	.	.	.	.	.	.	.
8G	d'an-	.	.	.	.	.	.	8b-y	-di-	.	.
=12	=12	=12	=12	=12	=12	=12	=12	=12	=12	=12	=12
2A	-dar-	2c]	.	1A	-dar-	1e	-dar-	4cc	-rai	1a	-vi?>
.	.	.	.	.	.	.	.	8a	tu	.	.
.	.	.	.	.	.	.	.	8b-y	an-	.	.
2A	-vi?>	2A	d'an-	.	.	.	.	2cc	-dar-	.	.
1r	.	2A	-dar-	1D	-vi?	1f	-vi?	1a	-vi?>	1r	.
.	.	2A	-vi?	.	.	.	.	.	.	.	.
=13	=13	=13	=13	=13	=13	=13	=13	=13	=13	=13	=13
1r	.	0r	.	2r	.	0r	.	0r	.	2.dd	Oh,
.	.	.	.	2.d	Oh,	.	.	.	.	.	.
.	.	.	.	.	.	.	.	.	.	8cc	che
.	.	.	.	.	.	.	.	.	.	8b-y	mi
2.D	Oh,	.	.	.	.	.	.	.	.	2a	di-
.	.	.	.	8c	che	.	.	.	.	.	.
.	.	.	.	8B-y	mi	.	.	.	.	.	.
.	.	.	.	8AL	di-	.	.	.	.	2f	-ci?
.	.	.	.	8B-y	.	.	.	.	.	.	.
8C	che	.	.	8c	.	.	.	.	.	.	.
8BB-y	mi	.	.	8dJ	.	.	.	.	.	.	.
=14	=14	=14	=14	=14	=14	=14	=14	=14	=14	=14	=14
4AA	di-	0r	.	2e	.	0r	.	0r	.	4cc	Oh,
4BB-y	.	.	.	.	.	.	.	.	.	8b-y	che
.	.	.	.	.	.	.	.	.	.	8a	mi
2C	.	.	.	2e	-ci?	.	.	.	.	4g	di-
.	.	.	.	.	.	.	.	.	.	4g	-ci?
4FF	-ci?	.	.	4f	Oh,	.	.	.	.	2a	Sil-
4F	Sil-	.	.	8e	che	.	.	.	.	.	.
.	.	.	.	8d	mi	.	.	.	.	.	.
4F	-via	.	.	4c	di-	.	.	.	.	4a	-via
4F	m'at-	.	.	4c	-ci?	.	.	.	.	4a	m'at-
=15	=15	=15	=15	=15	=15	=15	=15	=15	=15	=15	=15
2.F	-ten-	0r	.	2c	Sil-	0r	.	0r	.	4a	-ten-
.	.	.	.	.	.	.	.	.	.	4a	-de i-
.	.	.	.	4c	-via	.	.	.	.	4a	-gnu-
4D	-de i-	.	.	4f	m'at-	.	.	.	.	4dd	-da e
4.A	-gnu-	.	.	4e	-ten-	.	.	.	.	2cc	so-
.	.	.	.	4c	-de i-	.	.	.	.	.	.
8A	-da e	.	.	.	.	.	.	.	.	.	.
2G	so-	.	.	4BnX	-gnu-	.	.	.	.	2dd	-la?
.	.	.	.	4Bni	-da e	.	.	.	.	.	.
=16	=16	=16	=16	=16	=16	=16	=16	=16	=16	=16	=16
2A	-la?	1r	.	2c	so-	1r	.	1r	.	0r	.
2r	.	.	.	2d	-la?	.	.	.	.	.	.
1r	.	1c	So-	1r	.	2.g	So-	[1cc	So-	.	.
.	.	.	.	.	.	8fL	.	.	.	.	.
.	.	.	.	.	.	8eJ	.	.	.	.	.
=17	=17	=17	=17	=17	=17	=17	=17	=17	=17	=17	=17
1r	.	1a	-la,	1r	.	4f	.	2cc]	.	1r	.
.	.	.	.	.	.	4e	.	.	.	.	.
.	.	.	.	.	.	4e	.	2a	-la,	.	.
.	.	.	.	.	.	8dL	.	.	.	.	.
.	.	.	.	.	.	8cJ	.	.	.	.	.
2r	.	2r	.	2r	.	2d	.	2r	.	2r	.
4r	.	4r	.	4r	.	4d	-la,	4r	.	4r	.
4F	Se	4c	Se	4A	Se	4f	Se	4cc	Se	4a	Se
=18	=18	=18	=18	=18	=18	=18	=18	=18	=18	=18	=18
4F	non	4c	non	4A	non	4f	non	4cc	non	4a	non
4.F	quan-	4.c	quan-	4.A	quan-	4.f	quan-	4.cc	quan-	4.a	quan-
8F	-to	8c	-to	8A	-to	8f	-to	8cc	-to	8a	-to
4F	v'è	4c	v'è	4A	v'è	4f	v'è	4cc	v'è	4a	v'è
2F	Daf-	2c	Daf-	2A	Daf-	2f	Daf-	2cc	Daf-	2a	Daf-
2F	-ne.	2c	-ne,	2A	-ne.	2f	-ne,	2cc	-ne,	2a	-ne.
=19	=19	=19	=19	=19	=19	=19	=19	=19	=19	=19	=19
1r	.	4c	ch'è	1r	.	4e	ch'è	4g	ch'è	1r	.
.	.	4B-y	per	.	.	4d	per	4g	per	.	.
.	.	2c	no-	.	.	2e	no-	2g	no-	.	.
2r	.	2F	-i.	2r	.	1f	-i.	2f	-i.	2r	.
2F	I-	2r	.	2c	I-	.	.	2r	.	2a	I-
=20	=20	=20	=20	=20	=20	=20	=20	=20	=20	=20	=20
4.F	-gnu-	1r	.	4.c	-gnu-	1r	.	1r	.	4.a	-gnu-
8F	-da el-	.	.	8c	-da el-	.	.	.	.	8a	-da el-
4F	-la	.	.	4c	-la	.	.	.	.	4a	-la
4F	m'a-	.	.	4c	m'a-	.	.	.	.	4a	m'a-
2E	-spet-	2r	.	2c	-spet-	2r	.	2r	.	2g	-spet-
2F	-ta?	4r	.	2c	-ta?	4r	.	4r	.	2a	-ta?
.	.	4c	I-	.	.	4f	I-	4a	I-	.	.
=21	=21	=21	=21	=21	=21	=21	=21	=21	=21	=21	=21
0r	.	2d	-gnu-	1r	.	2f	-gnu-	2a	-gnu-	1r	.
.	.	2G	-da	.	.	2d	-da	2g	-da	.	.
.	.	2c	ma.	2r	.	2e	ma.	2g	ma.	4r	.
.	.	.	.	.	.	.	.	.	.	4cc	Ohi-
.	.	2r	.	2f	Ohi-	2r	.	2r	.	4.a	-mè,
.	.	.	.	.	.	.	.	.	.	8cc	che
=22	=22	=22	=22	=22	=22	=22	=22	=22	=22	=22	=22
1F	Ohi-	1r	.	4.c	-mè,	0r	.	4r	.	4.a	"ma,"
.	.	.	.	.	.	.	.	4a	Ohi-	.	.
.	.	.	.	8f	che	.	.	.	.	8cc	che
.	.	.	.	4.c	"ma,"	.	.	4.f	-mè,	4a	"ma"?
.	.	.	.	.	.	.	.	.	.	4a	Tu
.	.	.	.	8c	che	.	.	8a	che	.	.
4.D	-mè,	2r	.	4F	"ma"?	.	.	4.f	"ma,"	[1a	ta-
.	.	.	.	4A	Tu	.	.	.	.	.	.
8F	che	.	.	.	.	.	.	8a	che	.	.
4.D	"ma,"	2A	Ohi-	2A	ta-	.	.	4f	"ma"?	.	.
.	.	.	.	.	.	.	.	4f	Tu	.	.
8F	che	.	.	.	.	.	.	.	.	.	.
=23	=23	=23	=23	=23	=23	=23	=23	=23	=23	=23	=23
4D	"ma"?	4.F	-mè,	2A	-ci?	4r	.	1f	ta-	2a]	.
4D	Tu	.	.	.	.	4f	Ohi-	.	.	.	.
.	.	8A	che	.	.	.	.	.	.	.	.
1D	ta-	4.F	"ma,"	4A	Tu	4.d	-mè,	.	.	2a	-ci?
.	.	.	.	4A	m'uc-	.	.	.	.	.	.
.	.	8A	che	.	.	8f	che	.	.	.	.
.	.	4F	"ma"?	[1A	-ci-	4.d	"ma,"	2f	-ci?	2a	Ohi-
.	.	4F	Tu	.	.	.	.	.	.	.	.
.	.	.	.	.	.	8f	che	.	.	.	.
2D	-ci?	2F	ta-	.	.	4d	"ma"?	2r	.	4.f	-mè,
.	.	.	.	.	.	4d	Tu	.	.	.	.
.	.	.	.	.	.	.	.	.	.	8a	che
=24	=24	=24	=24	=24	=24	=24	=24	=24	=24	=24	=24
4F	Tu	2F	-ci?	1A]	.	1.c	ta-	2r	.	4.f	"ma,"
4F	m'uc-	.	.	.	.	.	.	.	.	.	.
.	.	.	.	.	.	.	.	.	.	8a	che
1F	-ci-	2r	.	.	.	.	.	2cc	Ohi-	4f	"ma"?
.	.	.	.	.	.	.	.	.	.	4f	Tu
.	.	1r	.	1A	-di,	.	.	4.a	-mè,	2f	ta-
.	.	.	.	.	.	.	.	8cc	che	.	.
2F	-di,	.	.	.	.	2c	-ci?	4.a	"ma,"	2f	-ci?
.	.	.	.	.	.	.	.	8cc	che	.	.
=25	=25	=25	=25	=25	=25	=25	=25	=25	=25	=25	=25
4FF	Tu	2c	Ohi-	4F	tu	4f	Tu	4a	"ma"?	4cc	Tu
4FF	m'uc-	.	.	4F	m'uc-	4f	m'uc-	4a	Tu	4cc	m'uc-
1FF	-ci-	4.A	-mè,	1F	-ci-	1f	-ci-	1a	ta-	1cc	-ci-
.	.	8c	che	.	.	.	.	.	.	.	.
.	.	4.A	"ma,"	.	.	.	.	.	.	.	.
.	.	8c	che	.	.	.	.	.	.	.	.
4FF	-di,	4A	"ma"?	4F	-di.	2f	-di,	2a	-ci?	[2a	-di,
4F	Ohi-	4A	Tu	4A	Ohi-	.	.	.	.	.	.
=26	=26	=26	=26	=26	=26	=26	=26	=26	=26	=26	=26
4.D	-mè,	4.A	ta-	4.F	-mè,	4f	Tu	4dd	Tu	2a]	.
.	.	.	.	.	.	4f	m'uc-	4dd	m'uc-	.	.
8F	che	8A	-ci?	8A	che	.	.	.	.	.	.
4.D	"ma,"	4A	Tu	4.F	"ma,"	2f	-ci-	1dd	-ci-	2a	Ohi-
.	.	4A	m'uc-	.	.	.	.	.	.	.	.
8F	che	.	.	8A	che	.	.	.	.	.	.
1D	"ma"?	2A	-ci-	1F	"ma"?	4f	-di,	.	.	4.f	-mè,
.	.	.	.	.	.	4f	Ohi-	.	.	.	.
.	.	.	.	.	.	.	.	.	.	8a	che
.	.	2A	-di?	.	.	4.d	-mè,	2dd	-di.	4.f	"ma,"
.	.	.	.	.	.	8f	che	.	.	8a	che
=27	=27	=27	=27	=27	=27	=27	=27	=27	=27	=27	=27
0r	.	4r	.	0r	.	4d	"ma"?	4r	.	1f	"ma"?
.	.	4B-y	Ma	.	.	4d	Ma	4b-y	Ma	.	.
.	.	4B-y	non	.	.	4d	non	4b-y	non	.	.
.	.	4B-y	sa	.	.	4d	sa	4b-y	sa	.	.
.	.	4.c	già	.	.	4.e	già	4g	già	1r	.
.	.	.	.	.	.	.	.	4a	che	.	.
.	.	8c	che	.	.	8e	che	.	.	.	.
.	.	4c	tu	.	.	4e	tu	4g	tu	.	.
.	.	[4c	v'ab-	.	.	[4e	v'ab-	[4g	v'ab-	.	.
=28	=28	=28	=28	=28	=28	=28	=28	=28	=28	=28	=28
1r	.	8c]	.	1r	.	8e]	.	8g]	.	1r	.
.	.	8c	-bi	.	.	8e	-bi	8g	-bi	.	.
.	.	4c	d'an-	.	.	4c	d'an-	4g	d'an-	.	.
.	.	2F	-da-	.	.	2c	-da-	2a	-da-	.	.
2r	.	2F	-re,	2r	.	2c	-re,	2a	-re,	2r	.
2BB-y	Ma	2F	Ma	2B-y	Ma	2f	Ma	2dd	Ma	2b-y	Ma
=29	=29	=29	=29	=29	=29	=29	=29	=29	=29	=29	=29
4F	non	4F	non	4c	non	4f	non	4cc	non	4a	non
4F	sa	4F	sa	4c	sa	4f	sa	4cc	sa	4a	sa
4C	già,	4G	già,	4c	già,	4e	già,	4cc	già,	4g	già,
4C	Ma	4G	Ma	4c	Ma	4e	Ma	4cc	Ma	4g	Ma
4G	non	4G	non	4B-y	non	4d	non	4dd	non	4g	non
4G	sa	4G	sa	4B-y	sa	4d	sa	4dd	sa	4g	sa
4D	già	4F	già	4A	già	4d	già	4dd	già	4a	già
4GG	che	4G	che	4G	che	4d	che	4b-y	che	4b-y	che
=30	=30	=30	=30	=30	=30	=30	=30	=30	=30	=30	=30
4D	tu,	4F	tu,	4A	tu,	4d	tu,	4a	tu,	4dd	tu,
4GG	che	4G	che	4B-y	che	4d	che	4g	che	4dd	che
4C	tu	4G	tu	4c	tu	4e	tu	4g	tu	4cc	tu
4.FF	v'ab-	4.F	v'ab-	4.c	v'ab-	4.f	v'ab-	4.a	v'ab-	4cc	v'ab-
.	.	.	.	.	.	.	.	.	.	4.cc	-bi
8FF	-bi	8F	-bi	8c	-bi	8f	-bi	8a	-bi	.	.
4FF	d'an-	4F	d'an-	4c	d'an-	4f	d'an-	4a	d'an-	.	.
.	.	.	.	.	.	.	.	.	.	8cc	d'an-
2C	-da-	2G	-da-	2c	-da-	2e	-da-	2g	-da-	2cc	-da-
=31	=31	=31	=31	=31	=31	=31	=31	=31	=31	=31	=31
0FFl	-re.	0Fl	-re.	0cl	-re.	0fl	-re.	0al	-re.	0ccl	-re.
==	==	==	==	==	==	==	==	==	==	==	==
*-	*-	*-	*-	*-	*-	*-	*-	*-	*-	*-	*-
!!!system-decoration: [*]
!!!RDF**kern: i = editorial accidental
!!!RDF**kern: l = terminal long
!!!ENC: Emiliano Ricciardi
!!!END: 2018
!!!EED: Coluzzi, Seth
!!!EEV: 2018/10/28
!!!YEC: Copyright 2018 Emiliano Ricciardi, All Rights Reserved
!!!ONB: Translated from MusicXML on 2018/10/28
!!@@BEGIN:	VERSEDATA
!!@CATALOGNUM:	Tam2031067
!!@LAST_MODIFIED: 2020/07/12
!!@ACT:      II
!!@SCENE:    3
!!@VERSE:    1067
!!@TITLE:     Orsù cuoprimi il tutto. Odi. Di' tosto
!!@MANUSRC:	A-Am, A-Au, A-Br, A-CM, A-F, A-Ub
!!@PRINTSRC:	A-1580D, A-1580M, A-1581B, A-1581B<sub>bis</sub>, A-1581M, A-1581M<sub>bis</sub>, A-1581O, A-1581V, A-1582B, A-1583M, A-1583V, A-1584A, A-1585C, A-1585V, A-1585V<sub>bis</sub>, A-1588B, A-1589M, A-1589V, A-1590Mb, A-1590Mv, A-1591M, A-1591W, A-1592B, A-1596B, A-1596M, A-1599Bf, A-1599Bp, A-1600R, A-1601Bf, A-1601Bp, A-1602B, A-1603Bf, A-1603Bv, A-1603Z, A-1605R, A-1606Z, A-1608D, A-1608DP, A-1609Bf, A-1609Bv, A-1609Z, A-1611D, A-1614GT, A-1617D, A-1618B, A-1619D, A-1619I, A-1620V, A-1622D, A-1623A, A-1624M, A-1624S, A-1624T, A-1625U, A-1628U, A-1632D, A-1634R
!!@@BEGIN:	VERSES
!!@ABOUTIT:	 AMINTA
!!@ABOUTEN:	
!!@EDITOR:	Solerti, Angelo
!!@EDITION_TITLE: Opere minori in versi di Torquato Tasso. Edizione critica sugli autografi e sulle antiche stampe.
!!@EDITION_LOC:	Bologna
!!@EDITION_PUB:	Zanichelli
!!@EDITION_DATE:  1895
!!@EDITION_VOL:	3
!!@EDITION_PAGE:
!!@TRANSLATOR:	Emiliano Ricciardi and Amyrose McCue Gill
!!@VERSE:	
!!	AMINTA: Horsù, scoprimi il tutto.
!!	TIRSI: Odi.
!!	AMINTA: Di' tosto.
!!	TIRSI: Silvia attende a una fonte, ignuda e sola.
!!	Ardirai tu d'andarvi?
!!	AMINTA: O, che mi dici?
!!	Silvia m'attende ignuda e sola?
!!	TIRSI: Sola,
!!	Se non quanto v'è Dafne, ch'è per noi.
!!	AMINTA: Ignuda ella m'aspetta?
!!	TIRSI: Ignuda, ma...
!!	AMINTA: Ohimè, che ma? Tu taci; tu m'uccidi.
!!	TIRSI: Ma non sa già che tu v'habbi d'andare.
!!@TVERSE:
!!	AMINTA: Come on now, reveal all to me.
!!	THYRSIS: Listen.
!!	AMINTA: Tell me at once.
!!	THYRSIS: Silvia waits at a spring, naked and alone.
!!	Will you dare to go there?
!!	AMINTA: Oh, what are you saying to me?
!!	Silvia awaits me naked and alone?
!!	THYRSIS: Alone,
!!	Except that Daphne is there, who is for us.
!!	AMINTA: Naked she waits for me?
!!	THYRSIS: Naked, but…
!!	AMINTA: Oh dear, what “but”? You are silent; you are killing me!
!!	THYRSIS: But she does not already know that you plan to go there.
!!@@END:		VERSES
!!@NEW_CRIT_ED:   Torquato Tasso, <i>Aminta. "Princeps."</i>, ed. Matteo Navone, vol. 9 of Commissione Nazionale per l'Edizione delle opere del Tasso. Studi e Testi (Alessandria: Edizioni dell'Orso, 2014).
!!@ATTRIBUTION_ABOUT:	
!!@DATING:	1573
!!@DEDICATEE:	
!!@COMMENTARY:
!!@@END:		VERSEDATA
!!@@BEGIN: SETTING
!!@CATALOGNUM:	Tam2031067a
!!@ACT:		II
!!@SCENE:		3
!!@VERSE:		1067
!!@TITLE:	Orsù scuoprimi il tutto. Odi. Dì tosto
!!@COMPOSER:	Balsamino, Simone
!!@PRINCEPSTITLE:	Novellette a sei voci
!!@PRINCEPSLOC:	Venice
!!@NORMLOC:	Venice
!!@NORMPUB:	Amadino
!!@NORMPUBSHORT:	Amadino
!!@PRINCEPSPUB:	Amadino
!!@PRINCEPSYEAR:	1594
!!@PRINCEPSRISM:	B 785
!!@OVOICES:	6
!!@EXTANTVOICES:	6
!!@OMENSURATION:	C
!!@OCLEFS:	C1,C1,C3,C4,C4,F4
!!@OTIME:		
!!@OKEYSIG:	b-
!!@FINAL:		(F)F
!!@TIMPEDITOR:	Coluzzi, Seth
!!@PARTS:		1 of 1
!!@REPRINTS:	
!!@@END: SETTING
